file/ring.svg

<svg clip-rule="evenodd" fill-rule="evenodd" stroke-linejoin="round" stroke-miterlimit="1.41421" viewBox="0 0 560 400" xmlns="http://www.w3.org/2000/svg"><g transform="matrix(.921234 0 0 .921234 95.7634 61.7688)"><circle cx="126.5" cy="53.4" fill="#1c9ad6" r="11.9"/><path d="m98.6 98.6c0 1.9-.8 3.6-2.1 4.9-1.4 1.4-3.2 2.1-5.1 2-1.8-.1-3.6-.8-4.9-2.1l-.2-.2c-.1-.1-.3-.3-.5-.4s-.3-.2-.5-.4c-5-4.1-11.4-6.3-17.9-6.2-8.4 0-15 2.9-19.7 8.6s-7.1 13.9-7.1 24.5v75.8c.1 2-.7 4-2.2 5.3-1.3 1.1-3 1.8-4.8 1.8-1.7 0-3.4-.7-4.8-1.8-1.5-1.3-2.4-3.2-2.2-5.3v-75.8c0-6.2.8-12.3 2.6-18.3 1.6-5.4 4.2-10.5 7.7-14.9 3.4-4.3 7.8-7.8 12.7-10.2 5.6-2.6 11.7-3.9 17.8-3.7 5.3.1 10.5 1.1 15.4 3 5.1 1.8 9.7 4.6 13.5 8.4 1.4 1.3 2.2 3.1 2.3 5zm34.9 106.5c.1 2-.7 4-2.2 5.3-2.8 2.3-6.8 2.3-9.6 0-1.5-1.3-2.4-3.2-2.2-5.3v-113.5c-.1-2 .7-4 2.2-5.3 2.8-2.3 6.8-2.3 9.6 0 1.5 1.3 2.3 3.2 2.2 5.3zm121.1 0c.1 2-.7 4-2.2 5.3-2.8 2.3-6.8 2.3-9.5 0-1.5-1.3-2.4-3.2-2.2-5.3v-77.4c0-4.2-.8-8.4-2.5-12.2-3.2-7.6-9.2-13.6-16.8-16.8-7.8-3.3-16.6-3.3-24.5 0-7.6 3.2-13.6 9.2-16.8 16.8-1.6 3.9-2.5 8-2.4 12.2v77.4c.1 2-.7 4-2.2 5.3-2.8 2.3-6.8 2.3-9.6 0-1.5-1.3-2.4-3.2-2.2-5.3v-77.4c0-6.1 1.2-12.1 3.6-17.7 2.3-5.4 5.5-10.3 9.7-14.5 4.1-4.1 8.9-7.4 14.2-9.7 11.4-4.8 24.2-4.8 35.6 0 10.9 4.5 19.6 13.2 24.1 24.1 2.4 5.6 3.6 11.6 3.6 17.7zm118.8 8.1c.1 6.1-1.2 12.2-3.6 17.8-4.6 10.9-13.3 19.5-24.2 24-5.6 2.4-11.6 3.6-17.7 3.6-3.4 0-6.9-.4-10.3-1.1-3.7-.7-7.2-1.8-10.7-3.2s-6.7-3.2-9.8-5.3c-2.9-2-5.4-4.6-7.3-7.5-.8-1.2-1.2-2.6-1.2-4-.1-1.9.8-3.7 2.2-5s3.1-2 5-2c1 0 2 .2 2.9.6 1.1.5 2.1 1.4 2.7 2.4 0 .2.1.3.2.5l.9.9c3.1 3.4 7.1 6 11.5 7.3 4.4 1.5 9 2.2 13.6 2.2 4.2 0 8.4-.8 12.2-2.5 7.6-3.2 13.6-9.2 16.8-16.8 1.7-3.8 2.5-8 2.5-12.2v-16c-4.1 3.9-9 7.1-14.2 9.2-5.5 2.3-11.3 3.4-17.2 3.4-6.1.1-12.2-1.1-17.8-3.6-10.8-4.6-19.4-13.2-24-24-2.4-5.6-3.6-11.7-3.6-17.8v-36.8c0-6.1 1.2-12.1 3.6-17.7 2.3-5.4 5.5-10.3 9.7-14.5 4.1-4.1 8.9-7.4 14.2-9.7 11.4-4.8 24.2-4.8 35.6 0 10.9 4.5 19.6 13.2 24.1 24.1 2.4 5.6 3.6 11.6 3.6 17.7zm-13.9-85.5c0-4.2-.8-8.4-2.5-12.2-3.2-7.6-9.2-13.6-16.8-16.8-7.8-3.3-16.6-3.3-24.5 0-7.6 3.2-13.6 9.2-16.8 16.8-1.6 3.9-2.5 8-2.4 12.2v36.6c0 4.2.8 8.4 2.4 12.3 1.6 3.7 3.9 7.1 6.8 10s6.3 5.2 10 6.7c7.8 3.3 16.6 3.3 24.5 0 7.6-3.2 13.6-9.2 16.8-16.8 1.7-3.9 2.5-8.1 2.5-12.3z" fill="#535556" fill-rule="nonzero"/></g></svg>

<?xml version="1.0" encoding="UTF-8" standalone="no"?>
<!DOCTYPE svg PUBLIC "-//W3C//DTD SVG 1.1//EN" "http://www.w3.org/Graphics/SVG/1.1/DTD/svg11.dtd">
<svg width="100%" height="100%" viewBox="0 0 560 400" version="1.1" xmlns="http://www.w3.org/2000/svg" xmlns:xlink="http://www.w3.org/1999/xlink" xml:space="preserve" xmlns:serif="http://www.serif.com/" style="fill-rule:evenodd;clip-rule:evenodd;stroke-linejoin:round;stroke-miterlimit:1.41421;">
    <g transform="matrix(0.921234,0,0,0.921234,95.7634,61.7688)">
        <circle id="blue" cx="126.5" cy="53.4" r="11.9" style="fill:rgb(28,154,214);"/>
        <path id="grey" d="M98.6,98.6C98.6,100.5 97.8,102.2 96.5,103.5C95.1,104.9 93.3,105.6 91.4,105.5C89.6,105.4 87.8,104.7 86.5,103.4L86.3,103.2C86.2,103.1 86,102.9 85.8,102.8C85.6,102.7 85.5,102.6 85.3,102.4C80.3,98.3 73.9,96.1 67.4,96.2C59,96.2 52.4,99.1 47.7,104.8C43,110.5 40.6,118.7 40.6,129.3L40.6,205.1C40.7,207.1 39.9,209.1 38.4,210.4C37.1,211.5 35.4,212.2 33.6,212.2C31.9,212.2 30.2,211.5 28.8,210.4C27.3,209.1 26.4,207.2 26.6,205.1L26.6,129.3C26.6,123.1 27.4,117 29.2,111C30.8,105.6 33.4,100.5 36.9,96.1C40.3,91.8 44.7,88.3 49.6,85.9C55.2,83.3 61.3,82 67.4,82.2C72.7,82.3 77.9,83.3 82.8,85.2C87.9,87 92.5,89.8 96.3,93.6C97.7,94.9 98.5,96.7 98.6,98.6ZM133.5,205.1C133.6,207.1 132.8,209.1 131.3,210.4C128.5,212.7 124.5,212.7 121.7,210.4C120.2,209.1 119.3,207.2 119.5,205.1L119.5,91.6C119.4,89.6 120.2,87.6 121.7,86.3C124.5,84 128.5,84 131.3,86.3C132.8,87.6 133.6,89.5 133.5,91.6L133.5,205.1ZM254.6,205.1C254.7,207.1 253.9,209.1 252.4,210.4C249.6,212.7 245.6,212.7 242.9,210.4C241.4,209.1 240.5,207.2 240.7,205.1L240.7,127.7C240.7,123.5 239.9,119.3 238.2,115.5C235,107.9 229,101.9 221.4,98.7C213.6,95.4 204.8,95.4 196.9,98.7C189.3,101.9 183.3,107.9 180.1,115.5C178.5,119.4 177.6,123.5 177.7,127.7L177.7,205.1C177.8,207.1 177,209.1 175.5,210.4C172.7,212.7 168.7,212.7 165.9,210.4C164.4,209.1 163.5,207.2 163.7,205.1L163.7,127.7C163.7,121.6 164.9,115.6 167.3,110C169.6,104.6 172.8,99.7 177,95.5C181.1,91.4 185.9,88.1 191.2,85.8C202.6,81 215.4,81 226.8,85.8C237.7,90.3 246.4,99 250.9,109.9C253.3,115.5 254.5,121.5 254.5,127.6L254.6,205.1ZM373.4,213.2C373.5,219.3 372.2,225.4 369.8,231C365.2,241.9 356.5,250.5 345.6,255C340,257.4 334,258.6 327.9,258.6C324.5,258.6 321,258.2 317.6,257.5C313.9,256.8 310.4,255.7 306.9,254.3C303.4,252.9 300.2,251.1 297.1,249C294.2,247 291.7,244.4 289.8,241.5C289,240.3 288.6,238.9 288.6,237.5C288.5,235.6 289.4,233.8 290.8,232.5C292.2,231.2 293.9,230.5 295.8,230.5C296.8,230.5 297.8,230.7 298.7,231.1C299.8,231.6 300.8,232.5 301.4,233.5C301.4,233.7 301.5,233.8 301.6,234L302.5,234.9C305.6,238.3 309.6,240.9 314,242.2C318.4,243.7 323,244.4 327.6,244.4C331.8,244.4 336,243.6 339.8,241.9C347.4,238.7 353.4,232.7 356.6,225.1C358.3,221.3 359.1,217.1 359.1,212.9L359.1,196.9C355,200.8 350.1,204 344.9,206.1C339.4,208.4 333.6,209.5 327.7,209.5C321.6,209.6 315.5,208.4 309.9,205.9C299.1,201.3 290.5,192.7 285.9,181.9C283.5,176.3 282.3,170.2 282.3,164.1L282.3,127.3C282.3,121.2 283.5,115.2 285.9,109.6C288.2,104.2 291.4,99.3 295.6,95.1C299.7,91 304.5,87.7 309.8,85.4C321.2,80.6 334,80.6 345.4,85.4C356.3,89.9 365,98.6 369.5,109.5C371.9,115.1 373.1,121.1 373.1,127.2L373.4,213.2ZM359.5,127.7C359.5,123.5 358.7,119.3 357,115.5C353.8,107.9 347.8,101.9 340.2,98.7C332.4,95.4 323.6,95.4 315.7,98.7C308.1,101.9 302.1,107.9 298.9,115.5C297.3,119.4 296.4,123.5 296.5,127.7L296.5,164.3C296.5,168.5 297.3,172.7 298.9,176.6C300.5,180.3 302.8,183.7 305.7,186.6C308.6,189.5 312,191.8 315.7,193.3C323.5,196.6 332.3,196.6 340.2,193.3C347.8,190.1 353.8,184.1 357,176.5C358.7,172.6 359.5,168.4 359.5,164.2L359.5,127.7Z" style="fill:rgb(83,85,86);fill-rule:nonzero;"/>
    </g>
</svg>
